X:10297
T:Marcha Procesional (Belmonte) (Arrg. Re)
C:Trad
Z:Mtodu de Gaita
M:6/8
L:1/8
Q:3/8=120
K:D
|:"D"F3- "D"F-FD|"F#m"C2 D "A"E2 F|"Em"G3 "Em"GAG|
"D"F3- "D"F-FD|"F#m"C2 D "A"E2 ~F|[1 "D"D2 D "D"A3:|[2 "D"D2 D "F#m"ABc|
|:"D"d3 "D"A3|"D"A3 "D"ABA|"D"A3 "Em"G3|"D"F3 "D"ABA|"D"A3 "Em"G3|
"D"F3 "D"ABA|"Em"G3 "D"F3|"A"E3 "Bm"BcB|"D"A3 "Em"G3|"D"F3 "D"ABA|
"Em"G3 "D"F3|"A"E3 "Bm"(2Bc/2B/2|"D"(2AF/2A/2 "Em"(2G/2F/2E/2F/2|"D"D6:|
%"Otra versin pa los ltimos compases |"A"E3 "Bm"BcB|"D"AFA "Em"G/2F/2E~F|"D"D6|"
